X:1
T: Hide and go Seek
C:
R:Jig
Q:180
K:Em
M:6/8
L:1/16
d2|B2G2E2 E2G2E2|E2G2E2 E2d2B2|A2F2D2 D2F2D2|D2F2A2 d2^c2d2|B2G2E2 E2G2E2|E2G2E2 d4e2|f2d2B2 A2G2F2|G2E2E2 E4d2|
B2G2E2 E2G2E2|E2G2E2 E2d2B2|A2F2D2 D2F2D2|D2F2A2 d2^c2d2|B2G2E2 E2G2E2|E2G2E2 d4e2|f2d2B2 A2G2F2|G2E2E2 E4B2|
e2B2e2 g2f2e2|b2g2e2 e2f2g2|d2e2d2 f2e2d2|a2f2d2 d2e2f2|e2f2e2 g2f2e2|b2g2e2 e2d2c2|B2c2B2 A2G2A2|B2G2E2 E4B2|
e2B2e2 g2f2e2|b2g2e2 e2f2g2|d2e2d2 f2e2d2|a2f2d2 d2e2f2|g2f2g2 a2g2a2|b2a2g2 f2g2a2|g2f2e2 d2B2A2|B2G2E2 E4||
